src/symbolic/actions/object-move-symbolic.svg

<svg xmlns="http://www.w3.org/2000/svg" width="16" height="16"><path d="M8 15.5L5 12h2v-2h2v2h2zM8 .5L5 4h2v2h2V4h2zM15.5 8L12 5v2h-2v2h2v2zM.5 8L4 5v2h2v2H4v2z" fill="#5d656b"/></svg>

<svg xmlns="http://www.w3.org/2000/svg" width="16" height="16" version="1.1">
 <path style="fill:#444444" d="M 8,15.5 5,12 H 7 V 10 H 9 V 12 H 11 Z"/>
 <path style="fill:#444444" d="M 8,0.5 5,4 H 7 V 6 H 9 V 4 H 11 Z"/>
 <path style="fill:#444444" d="M 15.5,8 12,5 V 7 H 10 V 9 H 12 V 11 Z"/>
 <path style="fill:#444444" d="M 0.5,8 4,5 V 7 H 6 V 9 H 4 V 11 Z"/>
</svg>
